X: 0592
T: HULL'S VICTORY
B: Oliver Ditson "The Boston Collection of Instrumental Music" 1910 p.59 #2
F: http://conquest.imslp.info/files/imglnks/usimg/8/8f/IMSLP175643-PMLP309456-bostoncollection00bost_bw.pdf
M: 2/4
L: 1/16
K: F
c2 |\
fcfa fcfa | agfe f2 AB | c2cd c2B2 | ABGA F2c2 |\
fcfa fcfa | g2g2g3g | fedc =BcdB | c2c2c2 :|
|: c2 |\
fcfg agfe | d2B2B2 de | gfga bagf | e2c2c2 de |\
fcfa fcfa | gcgb gcgb | agfa gfeg | f2f2f2 :|

%%sep 1 1 500
%%sep 1 1 500
